minus-circle-off.svg

<svg fill="currentColor" viewBox="0 0 24 24"><path d="M22.1 21.5 2.4 1.7 1.1 3l3 3C2.8 7.6 2 9.7 2 12c0 5.5 4.5 10 10 10 2.3 0 4.4-.8 6-2.1l2.8 2.8zM7 13v-2h2.1l2 2zm7.2-2L6.7 3.5C8.3 2.6 10.1 2 12 2c5.5 0 10 4.5 10 10 0 1.9-.6 3.7-1.5 5.3L16.2 13h.8v-2z"/></svg>

<svg  viewBox="0 0 24 24" fill="currentColor"><path  d="M22.1 21.5L2.4 1.7L1.1 3L4.1 6C2.8 7.6 2 9.7 2 12C2 17.5 6.5 22 12 22C14.3 22 16.4 21.2 18 19.9L20.8 22.7L22.1 21.5M7 13V11H9.1L11.1 13H7M14.2 11L6.7 3.5C8.3 2.6 10.1 2 12 2C17.5 2 22 6.5 22 12C22 13.9 21.4 15.7 20.5 17.3L16.2 13H17V11H14.2Z"/></svg>
